material/.icons/material/inbox-arrow-up-outline.svg

<svg xmlns="http://www.w3.org/2000/svg" viewBox="0 0 24 24"><path d="M19 3H5a2 2 0 00-2 2v14a2 2 0 002 2h14a2 2 0 002-2V5a2 2 0 00-2-2M5 19v-2h3.13a4.13 4.13 0 001.27 2m9.6 0h-4.4a4.13 4.13 0 001.27-2H19m0-2h-5v1a2 2 0 01-4 0v-1H5V5h14M8 11h2v3h4v-3h2l-4-4"/></svg>

<?xml version="1.0" encoding="UTF-8"?><!DOCTYPE svg PUBLIC "-//W3C//DTD SVG 1.1//EN" "http://www.w3.org/Graphics/SVG/1.1/DTD/svg11.dtd"><svg xmlns="http://www.w3.org/2000/svg" xmlns:xlink="http://www.w3.org/1999/xlink" version="1.1" id="mdi-inbox-arrow-up-outline" width="24" height="24" viewBox="0 0 24 24"><path d="M19 3H5A2 2 0 0 0 3 5V19A2 2 0 0 0 5 21H19A2 2 0 0 0 21 19V5A2 2 0 0 0 19 3M5 19V17H8.13A4.13 4.13 0 0 0 9.4 19M19 19H14.6A4.13 4.13 0 0 0 15.87 17H19M19 15H14V16A2 2 0 0 1 10 16V15H5V5H19M8 11H10V14H14V11H16L12 7" /></svg>
